plugin-bazel/src/main/resources/icons/bazel.svg

<svg xmlns="http://www.w3.org/2000/svg" viewBox="0 0 16 16" width="16" height="16">
    <path style="fill:#76D275;" d="M4.5 1 l3.5 3.5 -3.5 3.5 l-3.5 -3.5z"/>
    <path style="fill:#43A047;" d="M1 4.5 v3.5 l3.5 3.5 v-3.5z"/>

    <path style="fill:#76D275;" d="M11.5 1 l3.5 3.5 -3.5 3.5 -3.5 -3.5z"/>
    <path style="fill:#43A047;" d="M15 4.5 v3.5 l-3.5 3.5 v-3.5z"/>

    <path style="fill:#43A047;" d="M8 4.5 l3.5 3.5 -3.5 3.5 -3.5 -3.5z"/>
    <path style="fill:#00701A;" d="M8 11.5 v3.5 l-3.5 -3.5 v-3.5z"/>
    <path style="fill:#004300;" d="M8 11.5 l3.5 -3.5 v3.5 l-3.5 3.5z"/>
</svg>

<?xml version="1.0" encoding="UTF-8"?>
<svg xmlns="http://www.w3.org/2000/svg" width="16px" height="16px" viewBox="0 0 16 16" version="1.1">
<g id="surface1">
<path style=" stroke:none;fill-rule:nonzero;fill:rgb(46.27451%,82.352941%,45.882353%);fill-opacity:1;" d="M 4.5 1 L 8 4.5 L 4.5 8 L 1 4.5 Z M 4.5 1 "/>
<path style=" stroke:none;fill-rule:nonzero;fill:rgb(26.27451%,62.745098%,27.843137%);fill-opacity:1;" d="M 1 4.5 L 1 8 L 4.5 11.5 L 4.5 8 Z M 1 4.5 "/>
<path style=" stroke:none;fill-rule:nonzero;fill:rgb(46.27451%,82.352941%,45.882353%);fill-opacity:1;" d="M 11.5 1 L 15 4.5 L 11.5 8 L 8 4.5 Z M 11.5 1 "/>
<path style=" stroke:none;fill-rule:nonzero;fill:rgb(26.27451%,62.745098%,27.843137%);fill-opacity:1;" d="M 15 4.5 L 15 8 L 11.5 11.5 L 11.5 8 Z M 15 4.5 "/>
<path style=" stroke:none;fill-rule:nonzero;fill:rgb(26.27451%,62.745098%,27.843137%);fill-opacity:1;" d="M 8 4.5 L 11.5 8 L 8 11.5 L 4.5 8 Z M 8 4.5 "/>
<path style=" stroke:none;fill-rule:nonzero;fill:rgb(0%,43.921569%,10.196078%);fill-opacity:1;" d="M 8 11.5 L 8 15 L 4.5 11.5 L 4.5 8 Z M 8 11.5 "/>
<path style=" stroke:none;fill-rule:nonzero;fill:rgb(0%,26.27451%,0%);fill-opacity:1;" d="M 8 11.5 L 11.5 8 L 11.5 11.5 L 8 15 Z M 8 11.5 "/>
</g>
</svg>
